lib/brands/logos/percy.svg

<svg xmlns="http://www.w3.org/2000/svg" fill="none" aria-hidden="true" viewBox="0 0 182 64"><g id="Percy"><path id="Vector" fill="#5C007B" d="M37.429 8.00073C42.3516 10.1919 46.7142 13.5656 46.8867 13.6997L46.892 13.7038C46.1969 10.9551 45.6936 9.48382 45.6936 9.48382C47.24 10.3251 49.0874 11.4082 50.9049 12.5389L51.3081 12.7909C54.1927 14.6011 56.9392 16.4956 58.2109 17.6895C59.4464 17.6318 60.4348 17.3213 61.0686 17.056C62.1489 16.6038 63.0569 17.7147 63.4006 18.8449C63.7424 19.9691 64.1537 21.7044 64.1725 23.5863C64.1937 25.6846 63.7279 27.4975 62.7884 28.9751C61.009 31.7735 57.5537 33.6688 53.8243 35.6132L53.4088 35.8295L53.2004 35.9379C49.0636 38.0888 45.6129 40.2715 42.9155 44.2864C41.5225 46.3601 40.4334 48.6722 39.7123 51.0723C38.943 53.6277 38.3352 55.6993 36.6062 55.6993C35.0416 55.6993 34.1081 53.6836 33.4025 52.5453C32.0453 50.3562 30.3572 47.6334 27.6243 47.4032C25.197 47.0435 23.2046 47.9421 21.7648 49.1291C21.0533 49.7158 20.4638 50.3833 20.012 51.0227C19.6073 51.5068 19.2261 52.0033 18.8554 52.4863C17.723 53.9628 16.7447 55.2381 15.4522 55.6079C15.2409 55.6686 15.033 55.6993 14.8341 55.6993C14.6923 55.6993 14.5322 55.6829 14.3637 55.6384L14.2788 55.6138L14.2754 55.619C10.2021 54.4257 9.99194 46.977 9.99194 46.977C8.03358 47.4434 6.01135 48.7312 6.01135 48.7312C7.83495 42.484 11.3303 38.4014 11.3303 38.4014C10.568 38.3416 9.70931 38.3569 8.86567 38.4104L8.62514 38.4267C6.50577 38.5793 4.55005 38.9525 4.55005 38.9525C9.99194 31.9494 13.6642 29.3829 13.6642 29.3829C10.7811 28.1236 7.09843 27.4795 7.09843 27.4795C13.7272 23.6518 20.3052 21.7788 20.3052 21.7788C18.8725 20.4262 13.7153 18.6075 13.7153 18.6075C14.7222 18.3179 15.8996 18.0521 17.1238 17.8138L17.4587 17.7494C17.6826 17.707 17.9077 17.6655 18.1333 17.6249L18.4718 17.5648C18.6556 17.5325 18.8394 17.5009 19.0229 17.4699L19.2977 17.4239C19.3435 17.4163 19.3892 17.4088 19.4348 17.4013L19.7083 17.3567C23.2103 16.7914 26.392 16.4682 26.392 16.4682C24.6781 15.0235 20.7995 13.4507 20.7995 13.4507C22.9835 13.3761 24.9365 13.3493 26.5828 13.3473L27.0377 13.3473C30.2635 13.3523 32.1943 13.4507 32.1943 13.4507C30.9895 11.795 27.8842 9.62836 27.8842 9.62836C34.3502 10.2366 38.9593 11.8412 38.9593 11.8412C38.9103 11.4484 38.6347 10.7125 38.3305 9.98915L38.2507 9.80098C37.8495 8.86386 37.429 8.00073 37.429 8.00073ZM27.024 48.7235C26.8319 49.2369 26.6162 49.7926 26.3864 50.3487C26.3543 50.4265 26.3219 50.5045 26.2893 50.5825L26.1907 50.8162C25.3475 52.8011 24.3605 54.7163 23.302 54.8835C23.2343 54.8941 23.1652 54.8996 23.0971 54.8996C22.2569 54.8996 21.5037 54.1243 20.7995 52.532C22.038 50.7858 24.4954 48.7522 27.024 48.7235ZM46.6595 42.484C45.9663 45.0829 45.8738 47.6931 45.8 49.7899L45.7999 49.792C45.752 51.1477 45.7108 52.3184 45.5172 53.1705C45.258 54.3118 44.6901 54.8907 43.8288 54.8907L43.7995 54.8904C42.9685 54.8769 42.0855 54.165 41.1178 52.722C41.688 49.4553 43.945 45.2825 46.6595 42.484ZM85.2267 16.972C87.9936 16.972 90.6988 18.1901 92.5126 20.1588C94.3237 22.1251 95.4443 24.8409 95.4443 27.8383C95.4443 30.8358 94.3237 33.551 92.5126 35.5173C90.6988 37.4856 87.9936 38.7042 85.2267 38.7042C83.2003 38.7042 81.074 38.0766 79.5925 36.6778L79.5967 43.3433C79.6005 48.9477 75.226 48.098 74.2128 48.041C73.8683 48.0216 73.5988 47.9478 73.4117 47.7635C73.2246 47.5793 73.1305 47.3149 73.1305 46.9747L73.1167 18.0864C73.1167 17.7389 73.2129 17.4651 73.4059 17.2756C73.5983 17.0855 73.8747 16.9908 74.2293 16.9908H78.0338C78.3884 16.9908 78.6649 17.0855 78.8572 17.2756C79.0503 17.4651 79.1422 17.7362 79.1465 18.0864L79.1608 19.1905C80.014 18.4864 80.9613 17.9393 81.9627 17.5645C83.0058 17.1751 84.1088 16.972 85.2267 16.972ZM160.338 16.9442C160.627 16.9442 160.872 17.0222 161.061 17.1677C161.249 17.3138 161.388 17.5368 161.504 17.8116L166.939 30.5228L170.837 17.8472C170.92 17.5436 171.067 17.3356 171.267 17.1827C171.462 17.033 171.711 16.9442 172.003 16.9442H176.5C176.882 16.9442 177.153 17.0552 177.313 17.2572C177.472 17.4671 177.493 17.7603 177.375 18.1508L171.327 37.1332L168.993 44.4986L168.101 47.3301C168.002 47.6448 167.84 47.8656 167.618 47.9897L167.554 48.0216C167.312 48.1201 167.054 48.1059 166.751 48.0316C165.771 47.7898 161.225 47.2788 163.044 41.9702L164.122 38.8209L163.877 38.209L162.696 35.4L155.293 18.2021C155.131 17.8451 155.189 17.52 155.335 17.2986C155.486 17.0677 155.752 16.951 156.126 16.9442H160.338ZM18.563 34.6529L13.4935 42.2841L18.2707 37.9162L18.563 34.6529ZM131.966 16.9746C132.19 16.9772 132.371 17.0615 132.504 17.1976C132.699 17.397 132.792 17.6666 132.792 18.0153V23.047C132.792 23.3883 132.721 23.6442 132.569 23.8148C132.424 23.985 132.208 24.0708 131.927 24.0708C131.314 24.0494 130.728 24.1133 130.158 24.2625C129.595 24.4112 129.083 24.6677 128.635 25.0158C128.188 25.3712 127.829 25.8486 127.567 26.4301C127.302 27.0206 127.167 27.7378 127.164 28.5911L127.134 33.9573C127.103 39.5617 122.763 38.7126 121.75 38.655C121.405 38.6356 121.136 38.5628 120.949 38.3781C120.761 38.1933 120.667 37.93 120.667 37.5892V18.0571C120.667 17.7163 120.761 17.453 120.949 17.2682C121.137 17.0835 121.404 16.9913 121.75 16.9913H126.08C126.427 16.9913 126.694 17.0835 126.881 17.2682C127.07 17.453 127.164 17.7158 127.164 18.0571V19.1297C127.684 18.222 128.87 16.9332 131.966 16.9746ZM144.877 16.9442C149.768 16.9442 153.864 19.9081 155.161 24.1897C155.412 24.8896 154.994 25.343 154.283 25.343H149.685C149.141 25.343 148.764 25.0959 148.43 24.643C147.678 23.6139 146.382 23.037 144.877 23.037C142.159 23.037 140.069 24.9723 140.069 27.8127C140.069 30.6536 142.159 32.5884 144.877 32.5884C146.382 32.5884 147.678 32.0121 148.43 31.0242C148.764 30.5301 149.098 30.283 149.685 30.283H154.283C154.994 30.283 155.412 30.7358 155.161 31.4357C153.864 35.7173 149.768 38.6817 144.877 38.6817C138.522 38.6817 133.798 33.9468 133.798 27.8127C133.798 21.6785 138.522 16.9442 144.877 16.9442ZM108.402 16.9542C109.93 16.961 111.333 17.2342 112.611 17.775C113.889 18.3152 114.993 19.0742 115.938 20.0458C116.876 21.0242 117.605 22.1659 118.119 23.4794C118.633 24.7928 118.897 26.2292 118.904 27.7886C118.904 28.0556 118.897 28.3153 118.876 28.5618C118.862 28.8146 118.841 29.0612 118.821 29.3072C118.779 29.6355 118.654 29.8747 118.46 30.0254C118.265 30.1763 118.008 30.251 117.695 30.251H103.776C104.039 31.0583 104.408 31.7148 104.894 32.221C105.38 32.7204 105.95 33.0831 106.588 33.3155C107.235 33.5479 107.922 33.6573 108.652 33.6573C109.242 33.6505 109.811 33.5615 110.354 33.3773C110.888 33.1925 111.353 32.946 111.736 32.6313C111.937 32.4675 112.139 32.3371 112.333 32.2414C112.535 32.1461 112.764 32.0979 113.027 32.0979L117.029 32.0571C117.411 32.0639 117.688 32.1733 117.855 32.3853C118.015 32.5973 118.022 32.8711 117.862 33.2061C117.314 34.3965 116.584 35.3948 115.674 36.1952C114.764 37.0024 113.708 37.6039 112.506 38.0148C111.305 38.4178 109.993 38.6235 108.568 38.6235C106.832 38.6163 105.269 38.3362 103.88 37.7887C102.484 37.2416 101.296 36.4826 100.31 35.4974C99.3163 34.5196 98.5593 33.3699 98.0315 32.0639C97.5036 30.7504 97.2394 29.3277 97.2325 27.7886C97.2394 26.2496 97.5105 24.8267 98.0522 23.5138C98.5939 22.2073 99.3578 21.0582 100.351 20.0799C101.338 19.0952 102.519 18.3356 103.88 17.7886C105.241 17.2415 106.748 16.961 108.402 16.9542ZM33.084 28.8064L21.5999 34.291L31.1714 31.9494L33.084 28.8064ZM22.8106 27.4797L13.7153 34.0033L21.1255 30.7415L22.8106 27.4797ZM85.147 22.9941C82.4794 22.9941 80.3175 25.1371 80.3175 27.7807C80.3175 30.4249 82.4794 32.568 85.147 32.568C87.8139 32.568 89.9759 30.4249 89.9759 27.7807C89.9759 25.1371 87.8139 22.9941 85.147 22.9941ZM43.3856 25.5668L33.184 26.6654L40.6417 27.1021L43.3856 25.5668ZM108.36 22.4125C107.186 22.4193 106.2 22.6863 105.422 23.2265C104.637 23.76 104.081 24.5468 103.755 25.5728H112.68C112.458 24.7996 112.125 24.1771 111.68 23.7123C111.243 23.2538 110.729 22.9187 110.152 22.7135C109.575 22.5082 108.978 22.4057 108.36 22.4125ZM32.1943 22.5729L21.9927 23.6713L29.4893 24.3854L32.1943 22.5729ZM46.5638 21.2941L38.9593 22.9065L44.8762 22.5729L46.5638 21.2941ZM29.2845 18.6075L37.193 20.6311L40.6416 19.4861L29.2845 18.6075ZM37.429 14.7083L43.8288 17.6895L46.892 17.056L37.429 14.7083Z"/></g></svg>

<svg xmlns="http://www.w3.org/2000/svg" fill="none" aria-hidden="true" viewBox="0 0 182 64"><path fill="#5C007B" d="M37.429 8c4.923 2.192 9.285 5.566 9.458 5.7l.005.004c-.695-2.749-1.198-4.22-1.198-4.22 1.546.841 3.393 1.924 5.21 3.055l.404.252c2.885 1.81 5.631 3.705 6.903 4.898a8.478 8.478 0 0 0 2.858-.633c1.08-.452 1.988.659 2.332 1.789.341 1.124.753 2.86.771 4.741.022 2.099-.444 3.912-1.384 5.39-1.779 2.797-5.234 4.693-8.964 6.637l-.415.217-.209.108c-4.136 2.15-7.587 4.334-10.285 8.348a25.269 25.269 0 0 0-3.203 6.786c-.769 2.556-1.377 4.627-3.106 4.627-1.564 0-2.498-2.015-3.203-3.154-1.358-2.189-3.046-4.912-5.779-5.142-2.427-.36-4.42.54-5.86 1.726a9.83 9.83 0 0 0-1.752 1.894c-.405.484-.786.98-1.157 1.463-1.132 1.477-2.11 2.752-3.403 3.122-.211.06-.419.091-.618.091-.142 0-.302-.016-.47-.06l-.085-.025-.004.005c-4.073-1.193-4.283-8.642-4.283-8.642-1.958.466-3.98 1.754-3.98 1.754 1.823-6.247 5.318-10.33 5.318-10.33-.762-.06-1.62-.044-2.464.01l-.24.016c-2.12.152-4.076.526-4.076.526 5.442-7.004 9.114-9.57 9.114-9.57-2.883-1.26-6.566-1.903-6.566-1.903 6.63-3.828 13.207-5.701 13.207-5.701-1.433-1.353-6.59-3.171-6.59-3.171a41.08 41.08 0 0 1 3.409-.794l.335-.065.674-.124.339-.06c.184-.033.367-.064.55-.095l.276-.046.137-.023.273-.044c3.502-.566 6.684-.889 6.684-.889-1.714-1.444-5.593-3.017-5.593-3.017 2.184-.075 4.137-.102 5.784-.104h.455c3.226.005 5.156.104 5.156.104-1.205-1.656-4.31-3.823-4.31-3.823 6.466.609 11.075 2.213 11.075 2.213-.049-.393-.324-1.128-.628-1.852l-.08-.188c-.401-.937-.822-1.8-.822-1.8ZM27.024 48.725a52.073 52.073 0 0 1-.735 1.859l-.098.233c-.843 1.985-1.83 3.9-2.889 4.067a1.33 1.33 0 0 1-.205.017c-.84 0-1.593-.776-2.298-2.368 1.239-1.746 3.696-3.78 6.225-3.808Zm19.636-6.24c-.694 2.599-.786 5.21-.86 7.306v.002c-.048 1.356-.09 2.526-.283 3.378-.259 1.142-.827 1.72-1.688 1.72h-.03c-.83-.013-1.713-.725-2.681-2.168.57-3.267 2.827-7.44 5.541-10.238Zm38.567-25.512c2.767 0 5.472 1.218 7.286 3.187 1.81 1.966 2.931 4.682 2.931 7.68 0 2.997-1.12 5.712-2.931 7.678-1.814 1.969-4.52 3.187-7.286 3.187-2.027 0-4.153-.627-5.635-2.026l.005 6.665c.004 5.605-4.371 4.755-5.384 4.698-.345-.02-.614-.093-.801-.277-.187-.185-.282-.45-.282-.79l-.013-28.888c0-.347.096-.62.289-.81.192-.19.469-.285.823-.285h3.805c.354 0 .63.095.823.285.193.19.285.46.29.81l.014 1.105a9.805 9.805 0 0 1 2.802-1.627 9.326 9.326 0 0 1 3.264-.592Zm75.111-.028c.289 0 .534.078.723.224.188.146.327.369.443.644l5.435 12.71 3.898-12.675a1.19 1.19 0 0 1 .43-.664c.195-.15.444-.239.736-.239h4.497c.382 0 .653.111.813.313.159.21.18.503.062.894l-6.048 18.982-2.334 7.366-.892 2.831c-.099.315-.261.536-.483.66l-.064.032c-.242.098-.5.084-.803.01-.98-.242-5.526-.753-3.707-6.062l1.078-3.15-.245-.611-1.181-2.809-7.403-17.198c-.162-.357-.104-.682.042-.903.151-.231.417-.348.791-.355h4.212ZM18.563 34.653l-5.07 7.631 4.778-4.368.292-3.263Zm113.403-17.678a.743.743 0 0 1 .538.223c.195.199.288.469.288.817v5.032c0 .341-.071.597-.223.768-.145.17-.361.256-.642.256a6.089 6.089 0 0 0-1.769.191 4.232 4.232 0 0 0-1.523.754c-.447.355-.806.833-1.068 1.414-.265.59-.4 1.308-.403 2.161l-.03 5.366c-.031 5.605-4.371 4.756-5.384 4.698-.345-.02-.614-.092-.801-.277-.188-.185-.282-.448-.282-.789V18.057c0-.34.094-.604.282-.789.188-.184.455-.277.801-.277h4.33c.347 0 .614.093.801.277.189.185.283.448.283.79v1.072c.52-.908 1.706-2.197 4.802-2.155Zm12.911-.03c4.891 0 8.987 2.963 10.284 7.245.251.7-.167 1.153-.878 1.153h-4.598c-.544 0-.921-.247-1.255-.7-.752-1.03-2.048-1.606-3.553-1.606-2.718 0-4.808 1.935-4.808 4.776 0 2.84 2.09 4.775 4.808 4.775 1.505 0 2.801-.576 3.553-1.564.334-.494.668-.741 1.255-.741h4.598c.711 0 1.129.453.878 1.153-1.297 4.281-5.393 7.246-10.284 7.246-6.355 0-11.079-4.735-11.079-10.87 0-6.134 4.724-10.868 11.079-10.868Zm-36.475.01c1.528.006 2.931.28 4.209.82 1.278.54 2.382 1.3 3.327 2.27a10.36 10.36 0 0 1 2.181 3.434c.514 1.314.778 2.75.785 4.31 0 .267-.007.526-.028.773-.014.253-.035.5-.055.745-.042.329-.167.568-.361.718-.195.151-.452.226-.765.226h-13.919c.263.807.632 1.464 1.118 1.97.486.5 1.056.862 1.694 1.095a6.052 6.052 0 0 0 2.064.341 5.463 5.463 0 0 0 1.702-.28 4.45 4.45 0 0 0 1.382-.746 3.19 3.19 0 0 1 .597-.39c.202-.095.431-.143.694-.143l4.002-.04c.382.006.659.115.826.327.16.212.167.486.007.821-.548 1.19-1.278 2.189-2.188 2.99a9.207 9.207 0 0 1-3.168 1.819c-1.201.403-2.513.608-3.938.608-1.736-.007-3.299-.287-4.688-.834-1.396-.547-2.584-1.306-3.57-2.292a10.043 10.043 0 0 1-2.279-3.433c-.527-1.314-.792-2.736-.799-4.275.007-1.54.279-2.962.82-4.275a10.31 10.31 0 0 1 2.299-3.434c.987-.985 2.168-1.744 3.529-2.291 1.361-.548 2.868-.828 4.522-.835Zm-75.318 11.85L21.6 34.291l9.571-2.342 1.913-3.143ZM22.811 27.48l-9.096 6.523 7.41-3.262 1.686-3.261Zm62.336-4.486c-2.668 0-4.83 2.143-4.83 4.787s2.162 4.787 4.83 4.787c2.667 0 4.829-2.143 4.829-4.787s-2.162-4.787-4.829-4.787Zm-41.761 2.573-10.202 1.098 7.458.437 2.744-1.535Zm64.974-3.154c-1.174.006-2.16.273-2.938.814-.785.533-1.341 1.32-1.667 2.346h8.925c-.222-.773-.555-1.396-1-1.86a3.902 3.902 0 0 0-1.528-1 5.137 5.137 0 0 0-1.792-.3Zm-76.166.16L21.993 23.67l7.496.714 2.705-1.812Zm14.37-1.279-7.605 1.613 5.917-.334 1.688-1.279Zm-17.28-2.686 7.909 2.023 3.449-1.145-11.358-.878Zm8.145-3.9 6.4 2.981 3.063-.633-9.463-2.348Z"/></svg>
